X: 1
T: BLACK JACK
S: "Community Dances Manual 6", EFDSS, Jack Hamilton ed., 1981 p.5
R: jig
Z: 2010 John Chambers <jc:trillian.mit.edu>
M: 6/8
L: 1/8
K: G
"A"|: D- | "G"D2G GFG | "C"ABA- "D7"AGA | "G"BcB BAG | "C"ABA "D7"AFD | "G"G2B "C"EFG |
"D7"DEF "G"G2 "B":: G | "G"B2d- dcB | "C"dee "D7"d2c | "G"B2d- dcB | "C"dee "D7"d2c |
"Em"B2B- BAG | "Am"ABA "D7"AGA | "G"BcB BAG | "C6"ABA "D7"AGF | "Em"G2B "Am"EFG | "D7"DEF "G"G2 |]

%%sep 2 1 500
%%sep 1 1 500

